packages/react-icons/icons/boat-filled.svg

<svg width="24" height="25" viewBox="0 0 24 25" xmlns="http://www.w3.org/2000/svg"><path fill-rule="evenodd" clip-rule="evenodd" d="M5.99937 5.22813C5.99937 4.73107 6.40232 4.32812 6.89937 4.32812H9.91515C10.4122 4.32812 10.8151 4.73107 10.8151 5.22813V7.23132H11.2627C11.7598 7.23132 12.1627 7.63426 12.1627 8.13132V10.6424H19.2699C19.539 10.6424 19.7939 10.7628 19.9649 10.9705C20.1358 11.1783 20.2049 11.4516 20.1531 11.7156L18.9364 17.9178C18.9132 18.0361 18.8217 18.1315 18.7017 18.1427C18.6494 18.1476 18.5975 18.15 18.546 18.15C18.1071 18.15 17.6417 17.9759 17.1438 17.5776C16.5508 17.1031 15.9252 16.8408 15.2731 16.8408C14.621 16.8408 13.9954 17.1031 13.4024 17.5776C12.9045 17.9759 12.4391 18.15 12.0002 18.15C11.5614 18.15 11.096 17.9759 10.5981 17.5776C10.0051 17.1031 9.37947 16.8408 8.72739 16.8408C8.07532 16.8408 7.44974 17.1031 6.85671 17.5776C6.35879 17.9759 5.89342 18.15 5.45454 18.15C5.403 18.15 5.35109 18.1476 5.2988 18.1427C5.17884 18.1315 5.08733 18.0361 5.06414 17.9178L3.84743 11.7156C3.79564 11.4516 3.86468 11.1783 4.03564 10.9705C4.18984 10.7831 4.41235 10.6668 4.65192 10.6458V8.13132C4.65192 7.63426 5.05487 7.23132 5.55192 7.23132H5.99937V5.22813ZM10.3627 9.03132V10.6424H6.45192V9.03132H10.3627ZM9.01515 6.12813V7.23132H7.79937V6.12813H9.01515Z"/><path d="M4.21498 18.5796C3.8484 18.3884 3.38348 18.2282 3.12165 18.5482C3.11949 18.5508 3.11735 18.5535 3.11522 18.5561C2.80471 18.9443 2.86764 19.5106 3.25578 19.8211C3.91538 20.3488 4.65312 20.6729 5.45443 20.6729C6.25573 20.6729 6.99348 20.3488 7.65308 19.8211C8.08443 19.476 8.43764 19.3638 8.72728 19.3638C9.01693 19.3638 9.37013 19.476 9.80148 19.8211C10.4611 20.3488 11.1988 20.6729 12.0001 20.6729C12.8014 20.6729 13.5392 20.3488 14.1988 19.8211C14.6301 19.476 14.9833 19.3638 15.273 19.3638C15.5626 19.3638 15.9158 19.476 16.3472 19.8211C17.0068 20.3488 17.7445 20.6729 18.5458 20.6729C19.3471 20.6729 20.0849 20.3488 20.7445 19.8211C21.1326 19.5106 21.1956 18.9443 20.885 18.5561C20.883 18.5535 20.8809 18.551 20.8789 18.5485C20.6171 18.2283 20.152 18.3885 19.7853 18.5797C19.3846 18.7886 18.9709 18.9 18.546 18.9C17.8939 18.9 17.2683 18.6376 16.6753 18.1632C16.1773 17.7649 15.712 17.5908 15.2731 17.5908C14.8342 17.5908 14.3689 17.7649 13.8709 18.1632C13.2779 18.6376 12.6523 18.9 12.0002 18.9C11.3482 18.9 10.7226 18.6376 10.1296 18.1632C9.63164 17.7649 9.16627 17.5908 8.72739 17.5908C8.28852 17.5908 7.82315 17.7649 7.32523 18.1632C6.7322 18.6376 6.10661 18.9 5.45454 18.9C5.02954 18.9 4.61579 18.7885 4.21498 18.5796Z"/><path d="M13.2087 7.89316C13.043 7.89316 12.9087 8.02748 12.9087 8.19316V9.68319C12.9087 9.84888 13.043 9.98319 13.2087 9.98319H14.6987C14.8644 9.98319 14.9987 9.84888 14.9987 9.68319V8.19316C14.9987 8.02748 14.8644 7.89316 14.6987 7.89316H13.2087Z"/><path d="M12.9087 5.61406C12.9087 5.44838 13.043 5.31406 13.2087 5.31406H14.6987C14.8644 5.31406 14.9987 5.44838 14.9987 5.61406V7.10409C14.9987 7.26977 14.8644 7.40409 14.6987 7.40409H13.2087C13.043 7.40409 12.9087 7.26977 12.9087 7.10409V5.61406Z"/><path d="M15.7873 7.89316C15.6216 7.89316 15.4873 8.02748 15.4873 8.19316V9.68319C15.4873 9.84888 15.6216 9.98319 15.7873 9.98319H17.2773C17.443 9.98319 17.5773 9.84888 17.5773 9.68319V8.19316C17.5773 8.02748 17.443 7.89316 17.2773 7.89316H15.7873Z"/></svg>

<svg xmlns="http://www.w3.org/2000/svg" width="24" height="25"><path fill-rule="evenodd" d="M6 5.228a.9.9 0 0 1 .9-.9h3.015a.9.9 0 0 1 .9.9v2.003h.448a.9.9 0 0 1 .9.9v2.511h7.107a.9.9 0 0 1 .883 1.074l-1.217 6.202a.271.271 0 0 1-.234.225 1.668 1.668 0 0 1-.156.007c-.439 0-.904-.174-1.402-.572-.593-.475-1.219-.737-1.87-.737-.653 0-1.279.262-1.872.737-.497.398-.963.572-1.402.572-.439 0-.904-.174-1.402-.572-.593-.475-1.219-.737-1.87-.737-.653 0-1.278.262-1.871.737-.498.398-.964.572-1.402.572-.052 0-.104-.002-.156-.007a.271.271 0 0 1-.235-.225l-1.217-6.202a.9.9 0 0 1 .805-1.07V8.13a.9.9 0 0 1 .9-.9h.447V5.228Zm4.363 3.803v1.611H6.452v-1.61h3.91ZM9.015 6.128v1.103H7.8V6.128h1.216Z" clip-rule="evenodd"/><path d="M4.215 18.58c-.367-.192-.832-.352-1.093-.032l-.007.008a.9.9 0 0 0 .14 1.265c.66.528 1.398.852 2.2.852.8 0 1.538-.324 2.198-.852.431-.345.785-.457 1.074-.457.29 0 .643.112 1.074.457.66.528 1.398.852 2.2.852.8 0 1.538-.324 2.198-.852.431-.345.784-.457 1.074-.457.29 0 .643.112 1.074.457.66.528 1.397.852 2.199.852.801 0 1.539-.324 2.198-.852a.9.9 0 0 0 .141-1.265l-.006-.008c-.262-.32-.727-.16-1.094.032-.4.209-.814.32-1.239.32-.652 0-1.278-.262-1.87-.737-.499-.398-.964-.572-1.403-.572-.439 0-.904.174-1.402.572-.593.475-1.219.737-1.87.737-.653 0-1.278-.262-1.871-.737-.498-.398-.964-.572-1.403-.572-.438 0-.904.174-1.402.572-.593.475-1.218.737-1.87.737-.425 0-.84-.111-1.24-.32ZM13.209 7.893a.3.3 0 0 0-.3.3v1.49a.3.3 0 0 0 .3.3h1.49a.3.3 0 0 0 .3-.3v-1.49a.3.3 0 0 0-.3-.3h-1.49ZM12.909 5.614a.3.3 0 0 1 .3-.3h1.49a.3.3 0 0 1 .3.3v1.49a.3.3 0 0 1-.3.3h-1.49a.3.3 0 0 1-.3-.3v-1.49ZM15.787 7.893a.3.3 0 0 0-.3.3v1.49a.3.3 0 0 0 .3.3h1.49a.3.3 0 0 0 .3-.3v-1.49a.3.3 0 0 0-.3-.3h-1.49Z"/></svg>
